public/img/about-me/menu/phone-icon.svg

<svg width="17" height="18" viewBox="0 0 17 18" fill="none" xmlns="http://www.w3.org/2000/svg">
<path d="M16.221 13.0453V16.2319C16.2211 16.46 16.1347 16.6797 15.9791 16.8466C15.8236 17.0136 15.6105 17.1153 15.3829 17.1312C14.9891 17.1583 14.6674 17.1727 14.4187 17.1727C6.45507 17.1727 0 10.7176 0 2.754C0 2.50527 0.0135175 2.18356 0.0414537 1.78975C0.0574246 1.56215 0.159129 1.34908 0.326046 1.19354C0.492962 1.038 0.712664 0.951557 0.940819 0.95166H4.12735C4.23913 0.951547 4.34696 0.992987 4.4299 1.06793C4.51283 1.14287 4.56495 1.24597 4.57613 1.35719C4.59686 1.56445 4.61578 1.72937 4.63381 1.85463C4.8129 3.10448 5.17992 4.32008 5.72242 5.4602C5.80803 5.64044 5.75215 5.85582 5.58994 5.97117L3.64522 7.36077C4.83427 10.1314 7.04222 12.3393 9.81282 13.5284L11.2006 11.5872C11.2573 11.5079 11.3401 11.4511 11.4345 11.4265C11.5288 11.402 11.6288 11.4113 11.717 11.453C12.857 11.9945 14.0723 12.3606 15.3217 12.5389C15.4469 12.5569 15.6118 12.5767 15.8173 12.5966C15.9284 12.6079 16.0312 12.6601 16.106 12.7431C16.1807 12.826 16.2221 12.9337 16.2219 13.0453H16.221Z" fill="#607B96"/>
</svg>

<svg width="17" height="18" fill="none" xmlns="http://www.w3.org/2000/svg"><path d="M16.221 13.045v3.187a.9.9 0 01-.838.9c-.394.026-.716.04-.964.04C6.455 17.173 0 10.719 0 2.755c0-.249.014-.57.041-.964a.901.901 0 01.9-.838h3.186a.45.45 0 01.45.405c.02.207.039.372.057.498.179 1.25.546 2.465 1.088 3.605a.41.41 0 01-.132.511l-1.945 1.39a11.758 11.758 0 006.168 6.167l1.388-1.94a.417.417 0 01.516-.135 12.497 12.497 0 004.1 1.144.45.45 0 01.405.448h-.001z" fill="#607B96"/></svg>
